X:133
T:Clarinet March. JaW.133
M:C
L:1/8
Q:1/2=750
S:James Winder Ms, Lancashire, 1835-41
R:.March
O:England
A:Wyresdale,Lancashire
N:Title mostly illegible.
Z:vmp.Chris Partington, Aug 2004
K:F
“_No key given in MS”c2A>B c2c2|c>de>f c2zA|\
B2B>c {B}A2A>B|{A}G2G>G G2z2|!
c2A>B c2c2|c>de>f cagf|e>gf>e c>ed>=B|c2c>c ” cr”c4:|!
|:g>ag>f e2z2|b>c’b>a g2z2|a>ba>g f>fe>f|(a4 g2)dc|!
B2G>G G2cB|A2F>F F2f>_e|d2d>d b>ag>f|e2e4f2|!
g3a/b/ f2e2|f2c>c g2c>c|a3g f2zc|g2c>c a2c>c|!
b3a g2c>c|c’3b a>gf>_e|d2d>d d2(gd)|c2c>c c2a>f|!
d>d’c’>b a2g2|c2A>B c2c2|c>de>f c2c’>b|a2a>a g2g>g|f2f>f Hf4:|!
K:C
|:e3e c2c>c|f3f d2d>d|g>cd>e f2e2|d2d>d d2G2|!
e3e c2c>c|f3f a2a>a|{a}g2fe {e}dcde|c2c>c ” cr”c4:|!
f2e>e d2z2|g2f>f e2z2|f2e>e d2c>c|B2A>A G>B c>d|!
e3e c2c>c|f3f d2d>d|g2ce {e}dcde|c2c>c ” cr”c4:|

